X:1
T:James Gibb editions
T:Salve Regina - Martini
T:#
%%score [ 1 2 3 ] { ( 4 5 ) | ( 6 7 ) }
L:1/8
Q:1/4=90
M:4/4
K:F
V:1 treble-8 nm="Tenor I" snm="T I"
V:2 treble-8 nm="Tenor II" snm="T II"
V:3 bass nm="Bass" snm="B"
V:4 treble nm="Organ"
V:5 treble 
V:6 bass 
V:7 bass 
V:1
"^Salve Regina""^Giovanni Battista Martini\n(1706-84)"!p!"^andante" (D3 E FGA=B | ^cdef g4- | %2
w: Sal\- * * * * *||
 g2) f2 e4 | d4- z2 f2- | f2 ee ee (d2- | d2 ^c2) dAFD | d6 d2 | ^c2 e4 d=c | B4- A2 f2- | %9
w: * ve, sal-|ve, sal\-|* ve, Re- gi- na, Ma\-|* * ter mi- se- ri-|cor- di-|ae, vi- ta dul-|ce- do et|
 fed^c (d4- | ^c2 d4 c2) | d4"^animato" z4[Q:1/4=100] | z!mf! AAA e4- | e2 d2 d2 d>d | %14
w: * spes no- stra sal\-||ve,|Ad te cla- ma\-|* mus e- xu- les|
 d2 dd d2 ^c2 |[Q:1/4=100][Q:1/4=100][Q:1/4=100][Q:1/4=100] z2!p! ee f2 ^c2 | d8- | d2 dd d4- | %18
w: fi- li- i E- vae|Ad te su- spi-|ra\-|* mus ge- men\-|
 d2 cc (=B2 A^G) | A6 ^G2 |!<(! e=Bc ^G!<)! A4- | A2 (!courtesy!_BA) ^GGAA | %22
w: * tes et flen\- * *|* tes|in hac la- cry- ma\-|* rum, * in hac la- cry-|
"^rit."[Q:1/4=98] d2[Q:1/4=96] (c[Q:1/4=95]=B)[Q:1/4=93]!>(! (c2[Q:1/4=91] B2)!>)! | %23
w: ma- rum * val\- *|
[Q:1/4=90] A8 ||[M:3/4]!p! (c2 !courtesy!_B2) A2 | %25
w: le|E\- * ia|
[M:3/4][K:treble-8][Q:1/4=90][Q:1/4=90][Q:1/4=90][Q:1/4=90] A2 G2 AB | (c2 B2) A2 | A2 G2 z2 | %28
w: er- go ad- vo-|ca\- * ta|no- stra|
!<(! (d2 c2) B2!<)! | B2 AA Bc | (d2 c2) B2 | B>A A2 z2 |!<(! f2 _e2 d2!<)! | d2 c2 f2 | %34
w: il\- * los|tu- os mi- se- ri-|cor\- * des|o- cu- los|ad nos con-|ver- te, ad|
 (f2 _e2) d2 | d2 c2 c2- |!>(! c2 c4!>)! | B4 z2 | z6 |!p! _e2 c2 A2 | A4 A2 | A2 A2 B>c | %42
w: nos * con-|ver- te, con\-|* ver-|te,||Et Je- sum|be- ne-|di- ctum fru- ctum|
 (d2 c2) B2 | B2 A2 z2 | B2 B2 B2 | A4 A2 | G4 G2 | F2 f4 | f2 _e2 ^c2 | (d6- | de ^c4) | d4 z2 || %52
w: ven\- * tris|tu- i|no- bis post|hoc e-|xi- li-|um o-|sten- de, os-|ten\-||de.|
[M:4/4]"^,"!pp! f4 f4- | f2 _ef (e2 d2) | c2"^," c2 g4- |[M:4/4][K:treble-8] g6 fg | %56
w: O cle\-|* mens, O pi\- *|a, O cle\-|* mens, O|
 (f2 e2)"^," d2!p! f2 | _e2 d2 ^c2 =e2 | d2 c2 =B2 dd | (c2 !courtesy!_B2) A2"^,"!pp! f2 | %60
w: pi\- * a, O|dul- cis Vir- go|dul- cis Vir- go Ma-|ri\- * a, O|
 (_e2 ^c2) d4- | d2 dd (d2 ^c2) | d2 z2"^rit."[Q:1/4=84] e2 e2 | e6 ff |!>(! e8!>)! | d8 |] %66
w: dul- cís Vir\-|* go Ma- ri\- *|a, dul- cís|Vir- go Ma-|ri-|a!|
V:2
 z2!p! (D3 EFG | A=B^cA BcdB | ^c2 d4 c2) | d4 z4 | B2 BB A3 A | G4 F2 z A | FD A4 G2 | %7
w: Sal\- * * *|||ve,|sal- ve Re- gi- na,|Ma- ter mi-|se- ri- cor- di-|
 A2 z2 z2 A2- | A2 GG G2 F2 | B3 A GG (!tenuto!g2- | g2 f2 e4) | d4 z!mf! AAA | d6 ^cc | %13
w: ae, vi\-|* ta dul- ce- do|et spes no- stra sal\-||ve, Ad te cla-|ma- mus, cla-|
 f3 f e2 ee | f2 ff f2 e2 | z8 | z2!p! AA B2 ^F2 | G2 AA B2 AA | ^G2 AA (d4- | d2 c=B c2) B2 | %20
w: ma- mus ex \-u- les|fi- li- i E- vae||Ad te sus- pi-|ra- mus ge- men- tes et|flen- tes, et flen\-|* * * * tes|
 z4 z2!<(! AE!<)! | FD d4 c2 | (BA A4!>(! ^G2) | A8!>)! ||[M:3/4]!p! (A2 G2) F2 | %25
w: in hac|la- cry- ma- rum|val\- * * *|le|E\- * ia|
[M:3/4][K:treble-8] F2 E2 FG | (A2 G2) F2 | F2 E2 z2 |!<(! (B2 A2) G2!<)! | G2 ^FF GA | %30
w: er- go ad- vo-|ca\- * ta|no- stra|il\- * los|tu- os mi- \-se- ri-|
 (B2 A2) G2 | G>^F F2 z2 |!<(! d2 c2 B2!<)! | B2 A2 d2 | (d2 c2) B2 | B2 A2 B2- | %36
w: cor\- * des|o- cu- los|ad nos con-|ver- te, ad|nos\- * con-|ver- te, con\-|
!>(! B2 (B2!>)! A2) | B4 z2 |!p! d2 B2 G2 | G6- | G4 G2 | G2 ^F2 G>A | (B2 A2) G2 | G2 ^F2 A2- | %44
w: * ver\- *|te,|Et Je sum|be\-|* ne-|di- ctum fru- ctum|ven\- * tris|tu- i no\-|
 A2 G2 G2 | (G2 F2) F2- | F2 E3 E | D4 z2 | z2 G4- | G2 (F2 E2 | FG E4) | D4 z2 || %52
w: * bis post|hoc * e\-|* xi- li-|um|o\-|* sten\- *||de.|
[M:4/4] z2!pp! d2 c4 | =B2 (cd) (c2 B2) | c2 z2 z2 _e2 |[M:4/4][K:treble-8] d4 ^c2 (d=e) | %56
w: O cle-|mens, O * pi\- *|a, O|cle- mens, O *|
 (d2 ^c2) d2 z2 | z2!p! B2 A2 G2 | ^F2 A2 G2 =F2 | E2 GG F2 F2 | z2!pp! A2 G2 ^F2 | %61
w: pi\- * a,|O dul- cis|Vir- go, dul- cis|Vir- go Ma- ri- a,|O dul- cís|
 B2 AG (=F2 E2) | D2 d4 d2 | d4 ^c2 d2 |!>(! (d2!>)! ^c=B c4) | d8 |] %66
w: Vir- go Ma- ri\- *|a, dul- cis|Vir- go Ma-|ri\- * * *|a!|
V:3
 z8 |!p! (A,4 G,4 | A,8) | D,4 z4 | G,2 C,C, F,3 F, | (E,2 A,,2) D,4 | z A,F,D, B,,3 B,, | %7
w: |Sal\- *||ve,|sal- ve, Re- gi- na,|Ma\- * ter|mi- se- ri- cor- di-|
 A,,2 z2 ^F,4 | G,3 E, ^C,2 D,2 | G,3 A, B,2 G,2 | (A,2 G,2 A,4) | D,4 z4 | z4 z!mf! A,A,A, | %13
w: ae. vi-|ta dul- ce- do|et spes no- stra|sal\- * *|ve,|Ad te cla-|
 D2 B,2 G,2 A,B, | B,2 A,^G, A,2 A,2 | z4 z2!p! A,A, | B,2 ^F,2 G,2 D,2 | z2 ^F,F, G,2 =F,F, | %18
w: ma- mus ex- u- les|fi- li- i E- vae|Ad te|su- spi- ra- mus|su- spi- ra- mus ge-|
 E,2 F,F, (D,2 E,2 | F,2 E,D, E,2) E,2 | z4!<(! A,E,F,!<)!^C, | D,2 D,2 E,E,A,C, | %22
w: men- tes et flen\- *|* * * * tes|in hac la- cry-|ma- rum, in hac la- cry-|
 D,2 (E,F,)!>(! E,4!>)! | A,,8 ||[M:3/4]!p! ((F,2 B,,2)) =B,,2 |[M:3/4] C,2 C,2 C,_B,, | %26
w: ma- rum * val-|le|E\- * ia|er- go ad- vo-|
 (A,,2 B,,2) =B,,2 | C,2 C,2 z2 |!<(! (B,,2 C,2) ^C,2!<)! | D,2 D,C, B,,A,, | (G,,2 C,2) ^C,2 | %31
w: ca\- * ta|no- stra|il\- * los|tu- os mi- se- ri-|cor\- * des|
 D,>D, D,2 z2 |!<(! B,,2 _E,2 =E,2!<)! | F,2 F,2 D,2 | E,4 !courtesy!=E,2 | %35
w: o- cu- los|ad nos con-|ver- te, ad|nos con-|
 F,2 F,2 !courtesy!=E,2- |!>(! E,2 F,4!>)! | B,,4 z2 | z2 z2!p! B,,2 | C,4 D,2 | (_E,2 D,2) ^C,2 | %41
w: ver- te, con\-|* ver-|te,|Et|Je- sum|be\- * ne-|
 D,2 D,2 B,,A,, | (G,,2 C,2) ^C,2 | D,2 D,2 z2 | G,2 E,2 D,2 | ^C,2 D,4 | (=B,,2 ^C,3) C, | %47
w: di- ctum fru- ctum|ven\- * tris|tu- i|no- bis post|hoc e-|xi\- * li-|
 D,4 D,2 | G,,2 G,,2 A,,2 | (B,,2 A,,2 G,,2 | A,,G,, A,,4) | D,4 z2 ||[M:4/4] z2!pp! B,2 _A,4 | %53
w: um o-|sten- de, o-|sten\- * *||de.|O cle-|
 G,2 F,2 G,4 | C,2 z2 z2 C2 |[M:4/4] B,4 A,2 G,2 | A,4 D,2 z2 | z4 z2!p! ^C,2 | %58
w: mens, O pi-|a, O|cle- mens, O|pi- a,|O|
 D,2 ^F,2 G,2 =B,,B,, | (C,2 E,2)"^," F,2!pp! D,2 | G,,2 A,,2 B,,2 A,,2 | G,,2 A,,B,, A,,4 | %62
w: dul- cis Vir- go Ma-|ri\- * a, O|dul- cís Vír- go,|Vir- go~go Ma- ri-|
 D,2 z2 G,2 A,2 | (B,2 ^G,2) A,2 D,2 |!>(! A,,8!>)! | D,8 |] %66
w: a, dul- cis|Vir\- * go Ma-|ri-|al|
V:4
 D3 E [DF][EG][FA][G=B] | [A^c][=Bd][ce][Af] g4 | g2 f2 e4 | d4 z2 f2- | f2 e4 d2- | d2 ^c2 dAFA | %6
 d8 | ^c2 e4 d=c | B4 A2 f2- | fed^c d2 g2- | g2 f2 e4 | d4 z"^animato" AAA | d4 e4 | f4 e4 | x8 | %15
 z2 e2 f2 ^c2 | d8- | d8 | d2 c2 d4- | d2 c=B c2 B2 | e=Bc^G A4- | A2 _BA ^G2 A2 | %22
"^rit.""^t" d2 c=B c2 B2 | A8 ||[M:3/4]!p! [Ac]2 [G!courtesy!_B]2 [FA]2 | %25
[M:3/4] [FA]2 [EG]2 [FA][GB] | [Ac]2 [GB]2 [FA]2 | [FA]2 [EG]2 z2 | [Bd]2 [Ac]2 [GB]2 | %29
 [GB]2 [^FA]2 [GB][Ac] | [Bd]2 [Ac]2 [GB]2 | [GB]>[^FA] [FA]2 z2 | [df]2 [c_e]2 [Bd]2- | %33
 [Bd]2 [Ac]2 [df]2- | [df]2 [c_e]2 [Bd]2- | [Bd]2 [Ac]2 [Bc]2- | [Bc]4 [Ac]2 | B4 z2 | z6 | %39
 _e2 c2 A2- | A6 | A2 A2 [GB]>[Ac] | [Bd]2 [Ac]2 [GB]2- | [GB]2 [^FA]2 x2 | B6 | A6 | G6 | %47
 [DF]2 f4- | f2 _e2 ^c2 | d6- | [Fd][Ge] [E^c]4 | [Dd]4 z2 ||[M:4/4] [df]4- [cf]4 | %53
 [=Bf]2 [c_e][df] [ce]2 [Bd]2 | c2 c2 g2- [_eg]2 |[M:4/4] [dg]4 [^cg]2 [df][e=g] | %56
 [df]2 [^ce]2 d2 f2 | _e2 [Bd]2 [A^c]2 [G=e]2 | [^Fd]2 [Ac]2 [G=B]2 [=Fd]2 | %59
 [Ec]2 [G_B]2 [FA]2- [Ff]2 | _e2 ^c2 d4- | d6 ^c2 |"^1" d2 z2 e4- | e6 f2 | e8 | d8 |] %66
V:5
 x4 x4 | x4 =B^cdB | ^c2 d4 c2 | x4 x4 | B4 A4 | G4 F2 z2 | FD A4 G2 | A8- | A2 G4 F2 | %9
 B3 A G2 d2 | ^c2 d4 c2 | x4 x4 | z AAA d2 ^c2 | e2 d4- d2 | [df]6 [^ce]2 | x4 x4 | z2 A2 B2 ^F2 | %17
 G2 [^FA]2 [GB]2 A2 | ^G2 A2 =B2 A!courtesy!^G | A6 ^G2 | E4 C2 AE | F2 D4 C2 | BA A4 ^G2 | %23
 x4 x4 ||[M:3/4] x4 x2 |[M:3/4] x6 | x6 | x6 | x6 | x6 | x6 | x6 | x6 | x6 | x6 | x6 | x6 | x4 x2 | %38
 x4 x2 | G6 | G6- | G2 ^F2 x2 | x4 x2 | x4 A2- | A2 G4- | G2 F4- | F2 E4 | x6 | x2 G4- | G2 F2 E2 | %50
 x6 | x4 x2 ||[M:4/4] x8 | x8 | x8 |[M:4/4] x8 | x8 | x8 | x8 | x8 | z2 A2 G2 ^F2 | B2 AG =F2 E2 | %62
 D2 d4 d2- | d4 ^c2 d2- | d2 ^c=B c4 | x4 x4 |] %66
V:6
 D,8 | A,4 G,4 | A,4- [A,,A,]4 | D,4 D,4- | G,,2 C,2 F,,2 F,2 | E,2 A,,2 D,4 | z A,F,D, B,,4 | %7
 A,,4 ^F,,4 | G,,2 G,E, ^C,2 D,2 | G,3 A, B,2 G,2 | A,2 G,2 A,4 | D,4 z4 | z4 A,4 | %13
 D2 B,2 G,2 A,B, | B,2 A,^G, A,2 A,,=B,, | ^C,4 D,2 A,2 | B,2 ^F,2 G,2 D,2 | G,,2 D,2 G,2 =F,2 | %18
 E,2 F,2 D,2 E,2 | F,2 E,D, E,3 ^F, | ^G,2 A,E, A,E,F,^C, | D,4 E,2 A,C, | D,2 E,F, E,4 | %23
 [A,,A,]8 ||[M:3/4] F,2 B,,2 =B,,2 |[M:3/4] C,4 C,_B,, | A,,2 B,,2 =B,,2 | C,4 _B,,A,, | %28
 G,,2 C,2 ^C,2 | D,3 =C, B,,A,, | G,,2 C,2 ^C,2 | D,2 z _E,D,C, | B,,2 _E,2 =E,2 | F,4 D,2 | %34
 _E,4 =E,2 | F,4 E,2- | E,2 F,4 | B,,4 z2 | D2 B,2 G,2- | G,6 | _E,2 D,2 ^C,2 | D,3 C,B,,A,, | %42
 G,,2 C,2 ^C,2 | D,4 D,2 | G,2 E,2 D,2 | ^C,2 D,4 | =B,,2 ^C,2 A,,2 | D,4 D,2 | G,,4 A,,2 | %49
 B,,2 A,,2 G,,2 | A,,G,, A,,4 | D,4 z2 ||[M:4/4] B,,2 B,2 _A,4 | G,2 F,2 G,4 | C,4 C4 | %55
[M:4/4] B,4 A,2 G,2 | A,4 D,4- | G,4 A,2 ^C,2 | D,2 ^F,2 G,2 =B,,2 | C,2 E,2 F,2 D,2 | %60
 G,,2 A,,2 B,,2 A,,2 | G,,2 A,,B,, A,,4 | D,2 F,,2 G,,2"^rit." A,,2 | B,,2 ^G,,2 A,,2 D,2 | %64
!>(! [A,,A,]8!>)! | [D,,D,]8 |] %66
V:7
 x8 | x8 | x8 | x8 | x8 | x8 | x8 | x8 | x8 | x8 | x8 | x8 | x8 | x8 | x8 | x8 | x8 | x8 | x8 | %19
 x8 | x8 | x8 | x8 | x8 ||[M:3/4] x6 |[M:3/4] x6 | x6 | x6 | x6 | x6 | x6 | x6 | x6 | x6 | x6 | %35
 x6 | x6 | x4 x2 | B,,6 | C,4 D,2 | x4 x2 | x6 | x6 | x6 | x6 | x6 | x6 | x6 | x6 | x6 | x6 | x6 || %52
[M:4/4] x8 | x8 | x8 |[M:4/4] x8 | x8 | x8 | x8 | x8 | x8 | x8 | x8 | x8 | x8 | x8 |] %66

